X:1
T:Huelva, 76.76.76.86
T:Huelva, 76.76.76.86
T:Charles H. Gabriel, 1902
T:Public Domain Courtesy of the Cyber Hymnal™
C:Charles H. Gabriel, 1902
Z:Public Domain
Z:Courtesy of the Cyber Hymnal™
%%score ( 1 2 ) ( 3 4 )
L:1/8
Q:1/4=102
M:6/8
K:Ab
V:1 treble 
V:2 treble 
V:3 bass 
V:4 bass 
V:1
 [CE] | ([CE][DF])[DG] ([CA][DB])[CA] | [Ec]3 [Ec]2 [_Gc] | [FB]2 [FB] [FA]2 [DF] | %4
 [CE]3- [CE]2 [CE] | [DG]2 [DG] (GF)[DG] | [CA]3 [EB]2 [Ec] | [EB] E2 [=DG]2 [DF] | %8
 E3- !fermata![DE]2 [CE] | [Ec]2 [Ec] (ce)[EA] | [EA] [EG]4 E | [Ed]2 [Ed] ([DF][EG])[DF] | %12
 [CE]3- [CE]2 [CE] | [Ee]2 [Ec] ([CA][DB])[Ec] | [Fd]2 [Fd] ([DF][EG])[FA] | %15
 [CE] [Ec]2 [DB]2 [CA] | [CA]3- [CA]2 |] %17
V:2
 x | x6 | x6 | x6 | x6 | x3 D2 x | x6 | x E2 x3 | EB,C x3 | x3 E2 x | x5 E | x6 | x6 | x6 | x6 | %15
 x6 | x5 |] %17
V:3
 [A,,A,] | [A,,A,]2 [A,,A,] [A,,E,]2 [A,,E,] | [A,,A,]3 [A,,A,]2 [C,A,] | %3
 [D,A,]2 [D,A,] [D,D]2 [D,A,] | [A,,A,]3- [A,,A,]2 [A,,A,] | [B,,E,]2 [B,,E,] [E,B,]2 [E,B,] | %6
 [F,A,]3 [E,G,]2 [A,,A,] | [B,,G,] [B,,G,]2 [B,,B,]2 [B,,A,] | (G,2 A, !fermata![E,B,]2) A, | %9
 A,2 A, (A,C)[A,C] | [E,C] [E,B,]4 [E,G,] | [E,B,]2 [E,B,] [E,G,]2 [E,G,] | %12
 [A,,A,]3- [A,,A,]2 [A,,A,] | [A,C]2 A, A,2 A, | [D,A,]2 [D,A,] [D,A,]2 [D,A,] | %15
 [E,A,] [E,A,]2 [E,G,]2 [A,,E,] | [A,,E,]3- [A,,E,]2 |] %17
V:4
 x | x6 | x6 | x6 | x6 | x6 | x6 | x6 | E,3- A, x2 | A,2 A, A,2 x | x6 | x6 | x6 | x2 A, A,2 A, | %14
 x6 | x6 | x5 |] %17

